!!!COM: Scarlatti, Domenico
!!!CDT: 1685-1757
!!!OTL: Sonata in G major, L.302, K.372
!!!SCT: K. 302
!!!SCT: L. 302
!!!OMD: Allegro ([quarter-dot]=104)
**kern	**kern	**dynam
*staff2	*staff1	*staff1/2
*Icemba	*Icemba	*
*I"L.302 (K.372)	*I"L.302 (K.372)	*
*>[A,A,B,B]	*>[A,A,B,B]	*>[A,A,B,B]
*>norep[A,B]	*>norep[A,B]	*>norep[A,B]
*>A	*>A	*>A
*clefF4	*clefG2	*
*k[f#]	*k[f#]	*
*G:	*G:	*
*M6/8	*M6/8	*
*MM156	*MM156	*
=1-	=1-	=1-
2.r	8r	.
.	(8ggL	p
.	8ddJ)	.
.	8dd'L	.
.	8dd'	.
.	8dd'J	.
=2	=2	=2
2.r	(8bL	<
.	8g	.
.	8ddJ	.
.	8ggL)	[
.	8dd'	.
.	8ddJ	.
=3	=3	=3
2.r	(8bL	<
.	8g	.
.	8ddJ	.
.	8ggL)	[
.	8dd'	.
.	8dd'J	.
=4	=4	=4
8r	4.b	.
(8gL	.	<
8dJ)	.	.
8d'L	4r	.
8d'	.	.
8d'J	8dd'	.
!!LO:LB:g=z
=5	=5	=5
(8BL	4.ggMM	.
8G	.	.
8dJ	.	.
8gL)	4r	.
8d'	.	.
8d'J	8dd'	.
=6	=6	=6
(8BL	4.ggMM	.
8G	.	.
8dJ	.	.
8gL)	4r	.
8d'	.	.
8d'J	8dd'	.
=7	=7	=7
(8BL	(4gg'	f
8G	.	.
8BJ)	8dd)	.
(<4.F# 4.c 4.d	(8eeL	p
.	8dd	.
.	8ccJ	.
=8	=8	=8
4.G) 4.d	8bL	.
.	8a	.
.	8bJ)	.
(<4.F# 4.c 4.d	(8eeL	.
.	8dd	.
.	8ccJ	.
=9	=9	=9
*^	*	*
4.ryy	4.G) 4.d	8bL	.
.	.	8a	.
.	.	8bJ)	.
(8eL	4.G	(8ccL	.
8d	.	8b	.
8cJ	.	8aJ	.
!!LO:LB:g=z
=10	=10	=10	=10
8BL	4.G	8gL	.
8A	.	8f#	.
8BJ)	.	8gJ)	.
(8eL	4.G	(8ccL>	.
8d	.	8b	.
8cJ	.	8aJ	.
=11	=11	=11	=11
*	*	*^	*
8BL	4.G	4.ryy	8gL	.
8A	.	.	8f#	.
8BJ)	.	.	8gJ)	.
4.ryy	4.D 4.A (4.c	8aa (8cccL	4.dd 4.ff#	f
.	.	8bb	.	.
.	.	8aaJ	.	.
*v	*v	*	*	*
=12	=12	=12	=12
4.D 4.G 4.B)	4.ryy	8ggL	.
.	.	8ff#	.
.	.	8ggJ)	.
4.D 4.A (4.c	(8aaL	4.dd 4.ff#	.
.	8bb	.	.
.	8aaJ	.	.
*	*v	*v	*
=13	=13	=13
*^	*	*
4.ryy	4.D 4.G 4.B)	8ggL	.
.	.	8ff#	.
.	.	8ggJ)	.
(8cL	4.D	(8aaL	mf
8B	.	8gg	.
8AJ	.	8ff#J	.
=14	=14	=14	=14
8BL	4.D	8ggL	.
8A	.	8ff#	.
8BJ	.	8ggJ	.
8cL	4.D	8aaL	.
8B	.	8gg	.
8AJ)	.	8ff#J	.
!!LO:LB:g=z
=15	=15	=15	=15
(8GL	(4.G	4.gg)	<
8d	.	.	.
8gJ	.	.	.
8f#L	4A)	4r	.
8e)	.	.	.
8d'J	8B	8r	.
=16	=16	=16	=16
(8cL	(4c	2.r	.
8e	.	.	.
8aJ	8A	.	.
8gL)	4B)	.	.
8f#	.	.	.
8e'J	8c#'	.	.
=17	=17	=17	=17
*	*	*^	*
4.f#	4.d	8r	8r	.
.	.	(8ddL	4dd	f
.	.	8dddJ	.	.
4.ryy	(4.D	8cccnL	4ee	.
.	.	8bb)	.	.
.	.	8aa'J	8ff#'	.
*v	*v	*	*	*
=18	=18	=18	=18
4.G	(4bb	8ggL	.
.	.	8dd	.
.	8aa	8ff#J	.
4.A)	4.ryy	8ee 8ggL)	.
.	.	8dd' 8ff#'	.
.	.	8cc#' 8ee'J	.
*	*v	*v	*
!!LO:LB:g=z
=19	=19	=19
*^	*	*
(8DL	4D	4.dd 4.ff#	mf
8A	.	.	.
8dJ	(8D	.	.
8cnL	4E)	4r	.
8B)	.	.	.
8A'J	8F#'	8r	.
=20	=20	=20	=20
(8GL	(4G	2.r	.
8B	.	.	.
8eJ	8E	.	.
8dL	4F#)	.	.
8c#)	.	.	.
8B'J	8G#'	.	.
=21	=21	=21	=21
*	*	*^	*
4.c#	4.A	8r	8r	.
.	.	(8aL	(4a	f
.	.	8aaJ	.	.
4.AA	4.ryy	8ggnL	4b)	.
.	.	8ff#)	.	.
.	.	8eeJ	8cc#	.
*	*	*v	*v	*
=22	=22	=22	=22
(8AAL	4AA	8dd (8ff#	.
8E	.	4cc#+ 4ee)	.
8AJ	(8AA	.	.
8GL	4BB	4r	.
8F#)	.	.	.
8E'J	8C#')	8r	.
*v	*v	*	*
!!LO:LB:g=z
=23	=23	=23
*	*^	*
(<4.D 4.F#	8r	8r	.
.	(8aL	(4a	.
.	8aaJ	.	.
4.AA 4.A	8ggL	4b)	.
.	8ff#)	.	.
.	8ee'J	8cc#'	.
*	*v	*v	*
=24	=24	=24
4.D) 4.A	8dd (8ff#L	.
.	8ee 8gg	.
.	8ff# 8aaJ)	.
(<4.FF# 4.F#	8ff# (8aaL	.
.	8gg 8bb	.
.	8ff# 8aaJ)	.
=25	=25	=25
4.GG 4.G	8ff# (8aaL	.
.	8ee 8gg	.
.	8dd 8ff#J	.
4.AA 4.A	8eeL	.
.	8dd	.
.	8cc#J	.
=26	=26	=26
4.DD) 4.D	8ddL)	f
.	8b (8gg	.
.	8a 8ff#J)	.
4r	8g' 8ee'L	.
.	8f#' 8dd'	.
8r	8e' 8cc#'J	.
!!LO:LB:g=z
=27	=27	=27
*	*^	*
8r	4.dd^	8f#'	.
8B (8gL	.	4ryy	.
8A 8f#J)	.	.	.
8G' 8e'L	4r	4r	.
8F#' 8d'	.	.	.
8E' 8c#'J	8r	8r	.
*	*v	*v	*
=28	=28	=28
4.F#^ 4.d^	8r	.
.	8b (8ggL	.
.	8a 8ff#J)	.
4r	8g' 8ee'L	.
.	8f#' 8dd'	.
8r	8e' 8cc#'J	.
=29	=29	=29
*	*^	*
8r	4.dd^	8f#'	.
8B (8gL	.	4ryy	.
8A 8f#J)	.	.	.
8G' 8e'L	4r	4r	.
8F#' 8d'	.	.	.
8E' 8c#'J	8r	8r	.
*	*v	*v	*
=30	=30	=30
4.F#^ 4.d^	8r	.
.	8dd (8ff#L	.
.	8ee 8ggJ	.
(4.FF#	8ff# 8aaL	.
.	8gg 8bb	.
.	8ff# 8aaJ)	.
!!LO:LB:g=z
=31	=31	=31
4.GG	8ff# (8aaL	.
.	8ee 8gg	.
.	8dd 8ff#J	.
4.AA	8eeL	.
.	8dd	.
.	8cc#J	.
=32	=32	=32
2.DD)	8dd'L)	.
.	(8ddd	.
.	8aaJ	.
.	8ff#L	.
.	8dd)	.
.	8a'J	.
=33	=33	=33
(4.GG	(8bL	.
.	8gg	.
.	[8eeJ)	.
4.AA	8eeL]	.
.	(8eeq	.
.	(8dd)	.
.	8cc#J	.
=34	=34	=34
2.DD)	8dd'L)	.
.	(8ddd	.
.	8aaJ	.
.	8ff#L	.
.	8dd)	.
.	8a'J	.
=35	=35	=35
(4.GG	(8bL	.
.	8gg	.
.	[8eeJ)	.
4.AA	8eeL]	.
.	(8eeq	.
.	()8dd	.
.	8cc#J	.
!!LO:LB:g=z
=36	=36	=36
2.DD)	2.dd)	.
=37:|!|:	=37:|!|:	=37:|!|:
*>B	*>B	*>B
*	*^	*
2.D	8r	(4dd	p
.	[4ff#^	.	.
.	.	8a	.
.	8ff#L]	4b	.
.	(8gg	.	.
.	8eeJ	8cc#	.
=38	=38	=38	=38
2.D	[4.ff#)	8ddL)	.
.	.	(8dd	.
.	.	8aJ	.
.	8ff#L]	4b	.
.	(8gg	.	.
.	8eeJ	8cc#	.
=39	=39	=39	=39
2.D	[4.ff#)	8ddL)	.
.	.	(8dd	.
.	.	8aJ	.
.	8ff#L]	4b	.
.	&(8gg	.	.
.	8eeJ	8cc#	.
*	*v	*v	*
=40	=40	=40
4D 4d	8dd 8ff#L)	<
.	8ee 8gg	.
(<8Cn 8cn	[8ff# [8aaJ&)	.
4.BB 4.B	8ff#] 8aaL]	[ mf >
.	8ee (8gg	.
.	8dd# 8ff#J	]]
!!LO:LB:g=z
=41	=41	=41
4.E 4.B	8ee 8ggL	p
.	8dd# 8ff#	.
.	8ee 8ggJ	.
4.BB 4.B	8ff# 8aaL	<
.	8ee 8gg	.
.	8dd# 8ff#J	.
=42	=42	=42
4.E 4.B	8ee 8ggL	.
.	8dd# 8ff#	.
.	8ee 8ggJ	.
4.BB 4.B	8ff# 8aaL	.
.	8ee 8gg	.
.	8dd# 8ff#J)	.
=43	=43	=43
*	*^	*
4.E) 4.B	(4.gg#	(8ddnL	mf
.	.	8cc	.
.	.	8bJ	.
(<4.AA 4.A	4aa)	8ccL	.
.	.	8dd)	.
.	(8ggn	8eeJ	.
*	*v	*v	*
=44	=44	=44
4.D 4.A	8ffnL	.
.	8ee	.
.	8ddJ	.
4.Fn)	8ccL	.
.	8b	.
.	8aJ	.
!!LO:LB:g=z
=45	=45	=45
*^	*	*
(8EL	(4.E	4.g#)m<	.
8B	.	.	.
8eJ	.	.	.
8dL	4F#X)	4r	.
8c)	.	.	.
8B'J	8G#'	8r	.
=46	=46	=46	=46
4.c	4.A	8r	.
.	.	8ee (8cccL	f >
.	.	8dd 8bbJ)	.
4r	4r	8cc' 8aa'L	.
.	.	8b' 8ggn'	.
8r	8r	8a' 8ffn'J	.
=47	=47	=47	=47
(8EL	4E	4.g# 4.ee	]
8B	.	.	.
8eJ	(8E	.	.
8dL	4F#X)	4r	.
8c)	.	.	.
8B'J	8G#'	8r	.
=48	=48	=48	=48
4.c	4.A	8r	.
.	.	8cc (8aaL	mf
.	.	8b 8ggnJ	.
4r	4r	8a 8ffnL	.
.	.	8g# 8ee)	.
8r	8r	8a' 8ff'J	.
!!LO:LB:g=z
=49	=49	=49	=49
(8EL	4E	4.g# 4.ee	.
8B	.	.	.
8eJ	(8E	.	.
8dL	4F#)	4r	.
8c)	.	.	.
8B'J	8G#'	8r	.
=50	=50	=50	=50
4.c	4.A	8r	.
.	.	8ee (8cccL	f
.	.	8dd 8bbJ)	.
4r	4r	8dd (8bbL	.
.	.	8cc 8aa)	.
8r	8r	8b' 8ggn'J	.
=51	=51	=51	=51
(8DL	4D	4.a 4.ff#	.
8A	.	.	.
8dJ	(8D	.	.
8cL	4E)	4r	.
8B)	.	.	.
8A'J	8F#'	8r	.
=52	=52	=52	=52
4.B	4.G	8r	.
.	.	8b (8ggL	mf
.	.	8a 8ff#J	.
4r	4r	8g 8eeL	.
.	.	8f# 8dd)	.
8r	8r	8g' 8ee'J	.
!!LO:LB:g=z
=53	=53	=53	=53
(8DL	4D	4.f# 4.dd	.
8A	.	.	.
8dJ	(8D	.	.
8cL	4E)	4r	.
8B)	.	.	.
8A'J	8F#'	8r	.
*v	*v	*	*
=54	=54	=54
8G' 8B'L	8r	.
(8d	[4dd^	<
8F#J	.	.
8EL	8dd]	.
8c	[4ee^	.
8DJ	.	.
=55	=55	=55
8CL	8ee]	.
8A	[4ff#^	.
8BBJ	.	.
8AAL	8ff#]	.
8G	[4gg^	.
8GGJ	.	.
=56	=56	=56
8FF#L	8gg]	.
8D	[4aa^	.
8EEJ	.	.
4DD)	8aaL]	.
.	(8bb	.
(<8C	8cccJ	.
=57	=57	=57
4BB	8dddL	f
.	8ccc	.
8C	8bbJ	.
4D)	8aaL	.
.	8gg	.
8DD'	8ff#J	.
!!LO:LB:g=z
=58	=58	=58
4.GG^	8ggL)	.
.	8ee^ (8ccc^	.
.	8dd 8bbJ)	.
4r	8cc' 8aa'L	.
.	8b' 8gg'	.
8r	8a' 8ff#'J	.
*clefG2	*	*
=59	=59	=59
*	*^	*
8r	4.gg^	8b	.
(8e^> 8cc^>L	.	4ryy	.
8d) 8bJ	.	.	.
8c' 8a'L	4r	4r	.
8B' 8g'	.	.	.
8A' 8f#'J	8r	8r	.
*	*v	*v	*
=60	=60	=60
4.B^ 4.g^	8r	.
.	8ee^ (8ccc^L	.
.	8dd 8bbJ)	.
4r	8cc' 8aa'L	.
.	8b' 8gg'	.
8r	8a' 8ff#'J	.
=61	=61	=61
*	*^	*
8r	4.gg^	8b'	.
(8e^> 8cc^>L	.	4ryy	.
8d) 8bJ	.	.	.
8c' 8a'L	4r	4r	.
8B' 8g'	.	.	.
8A' 8f#'J	8r	8r	.
*	*v	*v	*
!!LO:LB:g=z
=62	=62	=62
4.B^ 4.g^	8r	.
.	(8dddL	.
.	8bbJ	.
*clefF4	*	*
(4.BB	8ggL	.
.	8dd)	.
.	8b'J	.
=63	=63	=63
4.C	(8eeL	.
.	8cc	.
.	[8aJ)	.
4.AA	8aL]	.
.	(8aq	.
.	(<8g)	.
.	8f#J	.
=64	=64	=64
4.BB)	8g'L)	.
.	(8ddd	.
.	8bbJ	.
(<4.BB	8ggL	.
.	8dd)	.
.	8b'J	.
=65	=65	=65
4.C	(8eeL	.
.	8cc	.
.	[8aJ)	.
4.D	8aL]	.
.	(8aq	.
.	(8g)	.
.	8f#J	.
=66	=66	=66
2.GG^)	2.g)	.
==:|!	==:|!	==:|!
*-	*-	*-
!!!RDF**kern: > = above
!!!RDF**kern: < = below
!!!RDF**kern: + = marked note, optional, color=silver
!!!verovio: beamFrenchStyle 1
!!!URL-vhv: https://verovio.humdrum.org/?file=scarlatti/sonatas/L302K372.krn
!!!URL-pdf: https://github.com/craigsapp/scarlatti-keyboard-sonatas/blob/master/reference-edition/L302K372.pdf
!!!URL-verovio: https://www.youtube.com/watch?v=pKkZn4OXOks Sean Kennard, piano
!!!URL-verovio: https://www.youtube.com/watch?v=opIGeXE2FH8  Martin Souter, fortepiano
!!!PTL: Domenico Scarlatti: Opere complete per clavicembalo
!!!PED: Longo, Alessandro
!!!PPR: Ricordi
!!!PPP: Milan
!!!PDT: 1906-1913
!!!YEC: 2021 Craig Stuart Sapp
!!!YEM: Licence: (CC BY-NC-SA 4.0) https://creativecommons.org/licenses/by-nc-sa/4.0
!!!ENC: Craig Stuart Sapp
!!!END: 2004/11/06
!!!EED: Craig Stuart Sapp
!!!EEV: 2021/06/13
